images/logo.svg

<svg width="171" height="56" viewBox="0 0 171 56" fill="none" xmlns="http://www.w3.org/2000/svg">
<path d="M14.6941 25.4463L8.0105 21.5142L28.5001 33.5833L14.6941 25.4463Z" fill="#FFE26E"/>
<path d="M28.5 33.5833L48.9896 21.5142L42.306 25.4463L28.5 33.5833Z" fill="#FFE26E"/>
<path d="M0 16.7918L5.02977 19.7568C5.66121 19.0006 6.55662 18.5127 7.53422 18.3909L28.5 15.816L7.53422 18.3918C6.55662 18.5135 5.66121 19.0019 5.02977 19.7581L8.01041 21.5142L14.694 25.4463L28.5 33.5837L42.306 25.4463L48.9896 21.5142L57 16.7918L28.5 0L0 16.7918Z" fill="#96C9EF"/>
<path d="M6.05937 53.8681L4.10809 43.1354L0.205078 55.8194L6.05937 53.8681Z" fill="#55A2FF"/>
<path d="M8.0105 21.5142V33.3784C8.0105 36.5887 10.6937 39.4667 14.9476 41.428C19.2246 43.271 23.8439 44.1855 28.5001 44.1112V33.5833L8.0105 21.5142Z" fill="#D0E6F8"/>
<path d="M28.5 33.5833V44.1112C33.1562 44.1855 37.7755 43.271 42.0525 41.428C46.3064 39.4667 48.9896 36.5887 48.9896 33.3784V21.5142L28.5 33.5833Z" fill="#DBECFA"/>
<path d="M4.1077 39.2327C3.56889 39.2327 3.13184 38.7957 3.13184 38.2569V22.2652C3.13488 19.8021 4.97136 17.726 7.41623 17.4229L28.3807 14.8471C28.916 14.7814 29.4031 15.1619 29.4688 15.6973C29.5344 16.2322 29.1539 16.7192 28.619 16.7849L7.65411 19.3607C6.1864 19.5407 5.08356 20.7871 5.08312 22.2652V38.2569C5.08312 38.7957 4.64651 39.2327 4.1077 39.2327Z" fill="#57A4FF"/>
<path d="M8.01066 41.1839C8.01066 43.3396 6.26333 45.087 4.10809 45.087C1.95241 45.087 0.205078 43.3396 0.205078 41.1839C0.205078 39.0287 1.95241 37.2814 4.10809 37.2814C6.26333 37.2814 8.01066 39.0287 8.01066 41.1839Z" fill="#398DF3"/>
<path d="M81.0508 34H77.4297V19.8906H73.2344L73.0469 21.4609C72.5625 25.4531 72.1328 28.2578 71.7578 29.875C71.3906 31.4844 70.8516 32.6172 70.1406 33.2734C69.4297 33.9297 68.4688 34.25 67.2578 34.2344C66.6016 34.2344 66.0234 34.1484 65.5234 33.9766V31C65.9766 31.1562 66.4023 31.2344 66.8008 31.2344C67.2148 31.2344 67.543 31.0469 67.7852 30.6719C68.0273 30.2891 68.2539 29.5859 68.4648 28.5625C68.6836 27.5312 68.9688 25.8477 69.3203 23.5117C69.6797 21.168 69.9844 18.9531 70.2344 16.8672H81.0508V34ZM87.9414 27.4258C87.9414 28.7227 88.1523 29.7031 88.5742 30.3672C89.0039 31.0312 89.6992 31.3633 90.6602 31.3633C91.6133 31.3633 92.2969 31.0352 92.7109 30.3789C93.1328 29.7148 93.3438 28.7305 93.3438 27.4258C93.3438 26.1289 93.1328 25.1562 92.7109 24.5078C92.2891 23.8594 91.5977 23.5352 90.6367 23.5352C89.6836 23.5352 88.9961 23.8594 88.5742 24.5078C88.1523 25.1484 87.9414 26.1211 87.9414 27.4258ZM97 27.4258C97 29.5586 96.4375 31.2266 95.3125 32.4297C94.1875 33.6328 92.6211 34.2344 90.6133 34.2344C89.3555 34.2344 88.2461 33.9609 87.2852 33.4141C86.3242 32.8594 85.5859 32.0664 85.0703 31.0352C84.5547 30.0039 84.2969 28.8008 84.2969 27.4258C84.2969 25.2852 84.8555 23.6211 85.9727 22.4336C87.0898 21.2461 88.6602 20.6523 90.6836 20.6523C91.9414 20.6523 93.0508 20.9258 94.0117 21.4727C94.9727 22.0195 95.7109 22.8047 96.2266 23.8281C96.7422 24.8516 97 26.0508 97 27.4258ZM109 20.8984V23.582H103.527V34H99.9531V20.8984H109ZM114.285 27.4258C114.285 28.7227 114.496 29.7031 114.918 30.3672C115.348 31.0312 116.043 31.3633 117.004 31.3633C117.957 31.3633 118.641 31.0352 119.055 30.3789C119.477 29.7148 119.688 28.7305 119.688 27.4258C119.688 26.1289 119.477 25.1562 119.055 24.5078C118.633 23.8594 117.941 23.5352 116.98 23.5352C116.027 23.5352 115.34 23.8594 114.918 24.5078C114.496 25.1484 114.285 26.1211 114.285 27.4258ZM123.344 27.4258C123.344 29.5586 122.781 31.2266 121.656 32.4297C120.531 33.6328 118.965 34.2344 116.957 34.2344C115.699 34.2344 114.59 33.9609 113.629 33.4141C112.668 32.8594 111.93 32.0664 111.414 31.0352C110.898 30.0039 110.641 28.8008 110.641 27.4258C110.641 25.2852 111.199 23.6211 112.316 22.4336C113.434 21.2461 115.004 20.6523 117.027 20.6523C118.285 20.6523 119.395 20.9258 120.355 21.4727C121.316 22.0195 122.055 22.8047 122.57 23.8281C123.086 24.8516 123.344 26.0508 123.344 27.4258ZM137.137 20.8984V23.582H132.848V34H129.273V23.582H124.973V20.8984H137.137ZM143.043 20.8984V26.0781C143.043 26.625 142.953 27.9609 142.773 30.0859L148.82 20.8984H153.121V34H149.664V28.7734C149.664 27.8438 149.742 26.5312 149.898 24.8359L143.875 34H139.586V20.8984H143.043ZM168.789 20.8984V34H165.203V23.582H160.457V34H156.883V20.8984H168.789Z" fill="white"/>
</svg>

<svg width="171" height="56" fill="none" xmlns="http://www.w3.org/2000/svg"><path d="M14.694 25.446 8.01 21.514l20.49 12.07-13.806-8.138zM28.5 33.583l20.49-12.069-6.684 3.932L28.5 33.583z" fill="#FFE26E"/><path d="m0 16.792 5.03 2.965a3.889 3.889 0 0 1 2.504-1.366L28.5 15.816 7.534 18.392a3.89 3.89 0 0 0-2.504 1.366l2.98 1.756 6.684 3.932L28.5 33.584l13.806-8.138 6.684-3.932L57 16.792 28.5 0 0 16.792z" fill="#96C9EF"/><path d="M6.06 53.868 4.107 43.135.205 55.82l5.854-1.95z" fill="#55A2FF"/><path d="M8.01 21.514v11.864c0 3.21 2.684 6.089 6.938 8.05A32.92 32.92 0 0 0 28.5 44.111V33.583L8.01 21.514z" fill="#D0E6F8"/><path d="M28.5 33.583v10.528a32.92 32.92 0 0 0 13.553-2.683c4.253-1.961 6.937-4.84 6.937-8.05V21.514L28.5 33.584z" fill="#DBECFA"/><path d="M4.108 39.233a.976.976 0 0 1-.976-.976V22.265a4.886 4.886 0 0 1 4.284-4.842l20.965-2.576a.976.976 0 0 1 .238 1.938L7.654 19.36a2.927 2.927 0 0 0-2.57 2.904v15.992a.976.976 0 0 1-.976.976z" fill="#57A4FF"/><path d="M8.01 41.184a3.903 3.903 0 1 1-7.805 0 3.903 3.903 0 0 1 7.806 0z" fill="#398DF3"/><path d="M81.05 34h-3.62V19.89h-4.196l-.187 1.57c-.484 3.993-.914 6.798-1.29 8.415-.366 1.61-.905 2.742-1.616 3.398-.711.657-1.672.977-2.883.961-.656 0-1.235-.086-1.735-.257V31a3.93 3.93 0 0 0 1.278.234c.414 0 .742-.187.984-.562.242-.383.469-1.086.68-2.11.219-1.03.504-2.714.855-5.05.36-2.344.664-4.559.914-6.645h10.817V34zm6.891-6.574c0 1.297.211 2.277.633 2.941.43.664 1.125.996 2.086.996.953 0 1.637-.328 2.05-.984.423-.664.634-1.649.634-2.953 0-1.297-.211-2.27-.633-2.918-.422-.649-1.113-.973-2.074-.973-.953 0-1.64.324-2.063.973-.422.64-.633 1.613-.633 2.918zm9.059 0c0 2.133-.563 3.8-1.688 5.004-1.124 1.203-2.69 1.804-4.699 1.804-1.257 0-2.367-.273-3.328-.82-.96-.555-1.7-1.348-2.215-2.379-.515-1.031-.773-2.234-.773-3.61 0-2.14.559-3.804 1.676-4.991 1.117-1.188 2.687-1.782 4.71-1.782 1.258 0 2.368.274 3.329.82.96.547 1.699 1.333 2.215 2.356.515 1.024.773 2.223.773 3.598zm12-6.528v2.684h-5.473V34h-3.574V20.898H109zm5.285 6.528c0 1.297.211 2.277.633 2.941.43.664 1.125.996 2.086.996.953 0 1.637-.328 2.051-.984.422-.664.633-1.649.633-2.953 0-1.297-.211-2.27-.633-2.918-.422-.649-1.114-.973-2.075-.973-.953 0-1.64.324-2.062.973-.422.64-.633 1.613-.633 2.918zm9.059 0c0 2.133-.563 3.8-1.688 5.004-1.125 1.203-2.691 1.804-4.699 1.804-1.258 0-2.367-.273-3.328-.82-.961-.555-1.699-1.348-2.215-2.379-.516-1.031-.773-2.234-.773-3.61 0-2.14.558-3.804 1.675-4.991 1.118-1.188 2.688-1.782 4.711-1.782 1.258 0 2.368.274 3.328.82.961.547 1.7 1.333 2.215 2.356.516 1.024.774 2.223.774 3.598zm13.793-6.528v2.684h-4.289V34h-3.575V23.582h-4.3v-2.684h12.164zm5.906 0v5.18c0 .547-.09 1.883-.27 4.008l6.047-9.188h4.301V34h-3.457v-5.227c0-.93.078-2.242.234-3.937L143.875 34h-4.289V20.898h3.457zm25.746 0V34h-3.586V23.582h-4.746V34h-3.574V20.898h11.906z" fill="#fff"/></svg>
